X:1
T:The Brave Dudley Boys
M:4/4
L:1/4
K:D
 D E F F| G F E2| F2 D2| E C D2| D E F F| G F E2| E2 ^G2| A3 z| B c d d|\
 c B A2| G A B G| A G F2| D E F- G| A2 B G| F2 E E| D3 z|
